X:1
T:The Cuckoo's Nest (3)
M:12/8
L:1/4
K:F
 c3/2 c c/2 A- c/2 c3/2| A c/2 c c/2 F3/2 z z/2| B3/2 G G/2| B3/2 G3/2|\
 B B/2 B B/2 E3/2 z A/2| c3/2 A A/2 c3/2 f f/2| f f/2 c c/2 c z/2 c c/2|\
 A A/2 G G/2 F F/2 G G/2| A F/2- F3/2| F3/2 z z/2||
